apps/scalable/calendar/calendar.svg

<svg xmlns="http://www.w3.org/2000/svg" style="isolation:isolate" width="256" height="256"><defs><filter id="a" width="270.648" height="254.338" x="-7.32" y="2.95" filterUnits="userSpaceOnUse"><feGaussianBlur xmlns="http://www.w3.org/2000/svg" in="SourceGraphic" stdDeviation="4.294"/><feOffset xmlns="http://www.w3.org/2000/svg" dy="4" result="pf_100_offsetBlur"/><feFlood xmlns="http://www.w3.org/2000/svg" flood-opacity=".4"/><feComposite xmlns="http://www.w3.org/2000/svg" in2="pf_100_offsetBlur" operator="in" result="pf_100_dropShadow"/><feBlend xmlns="http://www.w3.org/2000/svg" in="SourceGraphic" in2="pf_100_dropShadow"/></filter></defs><g filter="url(#a)"><linearGradient id="b" x1=".533" x2=".533" y1="-.071" y2="1.071" gradientTransform="matrix(244.648 0 0 228.338 5.676 11.947)" gradientUnits="userSpaceOnUse"><stop offset="0%" stop-color="#2b898f"/><stop offset="100%" stop-color="#5bdbc1"/></linearGradient><path fill="url(#b)" d="M165.685 11.947c74.055 0 84.639 10.557 84.639 84.544v59.251c0 73.986-10.584 84.543-84.639 84.543h-75.37c-74.055 0-84.639-10.557-84.639-84.543V96.491c0-73.987 10.584-84.544 84.639-84.544h75.37z"/></g><g opacity=".4"><linearGradient id="c" x1=".517" x2=".517" y2="1"><stop offset="0%" stop-color="#fff"/><stop offset="12.5%" stop-opacity=".098" stop-color="#fff"/><stop offset="92.5%" stop-opacity=".098"/><stop offset="100%" stop-opacity=".498"/></linearGradient><path fill="none" stroke="url(#c)" stroke-linecap="round" stroke-linejoin="round" stroke-width="4.077" d="M165.685 11.947c74.055 0 84.639 10.557 84.639 84.544v59.251c0 73.986-10.584 84.543-84.639 84.543h-75.37c-74.055 0-84.639-10.557-84.639-84.543V96.491c0-73.987 10.584-84.544 84.639-84.544h75.37z" vector-effect="non-scaling-stroke"/></g><path fill="#FFF" d="M5.676 126.116v29.626c0 73.986 10.584 84.543 84.639 84.543h75.37c74.055 0 84.639-10.557 84.639-84.543v-29.626H5.676z" opacity=".1"/><defs><filter id="d" width="270.648" height="74.93" x="-7.32" y="94.53" filterUnits="userSpaceOnUse"><feGaussianBlur xmlns="http://www.w3.org/2000/svg" in="SourceGraphic" stdDeviation="4.294"/><feOffset xmlns="http://www.w3.org/2000/svg" dy="4" result="pf_100_offsetBlur"/><feFlood xmlns="http://www.w3.org/2000/svg" flood-opacity=".4"/><feComposite xmlns="http://www.w3.org/2000/svg" in2="pf_100_offsetBlur" operator="in" result="pf_100_dropShadow"/><feBlend xmlns="http://www.w3.org/2000/svg" in="SourceGraphic" in2="pf_100_dropShadow"/></filter></defs><g filter="url(#d)"><linearGradient id="e" x1="-.008" x2="-.008" y1=".917" y2=".083" gradientTransform="matrix(244.648 0 0 48.93 5.676 103.535)" gradientUnits="userSpaceOnUse"><stop offset="0%" stop-color="#d9d9d9"/><stop offset="100%" stop-color="#ececec"/></linearGradient><path fill="url(#e)" d="M5.676 103.535v48.93h8.155v-48.93H5.676zm236.493 0v48.93h8.155v-48.93h-8.155z"/></g><defs><filter id="f" width="270.648" height="27.019" x="-7.32" y="94.53" filterUnits="userSpaceOnUse"><feGaussianBlur xmlns="http://www.w3.org/2000/svg" in="SourceGraphic" stdDeviation="4.294"/><feOffset xmlns="http://www.w3.org/2000/svg" dy="4" result="pf_100_offsetBlur"/><feFlood xmlns="http://www.w3.org/2000/svg" flood-opacity=".4"/><feComposite xmlns="http://www.w3.org/2000/svg" in2="pf_100_offsetBlur" operator="in" result="pf_100_dropShadow"/><feBlend xmlns="http://www.w3.org/2000/svg" in="SourceGraphic" in2="pf_100_dropShadow"/></filter></defs><path fill="#FFF" d="M5.676 103.535v1.019h8.155v-1.019H5.676zm236.493 0v1.019h8.155v-1.019h-8.155z" filter="url(#f)"/><defs><filter id="g" width="175.598" height="81.046" x="41.04" y="119" filterUnits="userSpaceOnUse"><feGaussianBlur xmlns="http://www.w3.org/2000/svg" in="SourceGraphic" stdDeviation="4.294"/><feOffset xmlns="http://www.w3.org/2000/svg" dy="4" result="pf_100_offsetBlur"/><feFlood xmlns="http://www.w3.org/2000/svg" flood-opacity=".4"/><feComposite xmlns="http://www.w3.org/2000/svg" in2="pf_100_offsetBlur" operator="in" result="pf_100_dropShadow"/><feBlend xmlns="http://www.w3.org/2000/svg" in="SourceGraphic" in2="pf_100_dropShadow"/></filter></defs><path fill="#F9F9F9" d="M86.652 128c-1.595 1.573-3.162 3.128-4.9 4.796a923.34 923.34 0 0 1-9.594 9.137 86.018 86.018 0 0 0-8.983 10.201 57.718 57.718 0 0 0-6.549 11.725c-1.725 4.061-2.588 8.477-2.588 13.248v2.588c.102.508.151.864.151 1.067h60.758v-8.68H65.154v-.305c0-2.436.557-4.872 1.674-7.309 1.218-2.538 2.792-5.075 4.721-7.613a93.81 93.81 0 0 1 6.701-7.765 280.133 280.133 0 0 1 7.765-7.767 798.826 798.826 0 0 0 9.288-9.136A81.367 81.367 0 0 0 99.199 128H86.652zm66.315 0a45.822 45.822 0 0 0-3.843 2.817c-2.132 1.726-4.06 3.756-5.786 6.091-1.624 2.233-2.945 4.822-3.96 7.766-1.015 2.843-1.523 6.04-1.523 9.593 0 4.162.763 8.02 2.286 11.573 1.624 3.451 3.857 6.495 6.699 9.134 2.944 2.538 6.396 4.518 10.355 5.94 4.061 1.421 8.577 2.132 13.551 2.132s9.492-.761 13.552-2.284c4.061-1.421 7.513-3.401 10.355-5.939 2.843-2.639 5.026-5.786 6.548-9.441 1.625-3.654 2.435-7.664 2.435-12.029 0-5.076-1.472-9.898-4.416-14.466-2.681-4.31-7.285-7.933-13.761-10.887h-32.492zm11.688 1.599a578.321 578.321 0 0 0 10.202 3.197c3.452 1.015 6.497 2.386 9.137 4.112 2.74 1.725 4.924 3.958 6.548 6.699 1.726 2.741 2.588 6.295 2.588 10.66 0 2.842-.456 5.481-1.37 7.918-.913 2.436-2.336 4.567-4.264 6.395-1.828 1.827-4.162 3.299-7.005 4.416-2.74 1.015-5.989 1.523-9.745 1.523-3.756 0-7.055-.508-9.897-1.523-2.741-1.117-5.076-2.589-7.004-4.416a17.76 17.76 0 0 1-4.112-6.395c-.913-2.437-1.37-5.076-1.37-7.918 0-5.787 1.421-10.711 4.263-14.771 2.842-4.162 6.852-7.461 12.029-9.897z" filter="url(#g)"/><defs><filter id="h" width="174.838" height="81.046" x="39.36" y="63.95" filterUnits="userSpaceOnUse"><feGaussianBlur xmlns="http://www.w3.org/2000/svg" in="SourceGraphic" stdDeviation="4.294"/><feOffset xmlns="http://www.w3.org/2000/svg" dy="4" result="pf_100_offsetBlur"/><feFlood xmlns="http://www.w3.org/2000/svg" flood-opacity=".4"/><feComposite xmlns="http://www.w3.org/2000/svg" in2="pf_100_offsetBlur" operator="in" result="pf_100_dropShadow"/><feBlend xmlns="http://www.w3.org/2000/svg" in="SourceGraphic" in2="pf_100_dropShadow"/></filter></defs><path fill="#ECECEC" d="M80.38 72.954c-3.857 0-7.359.508-10.506 1.523-3.147.914-5.937 2.029-8.374 3.349-2.335 1.32-4.315 2.69-5.939 4.111-1.523 1.32-2.588 2.336-3.197 3.046l5.176 6.853c.609-.609 1.573-1.471 2.893-2.588 1.32-1.117 2.893-2.184 4.721-3.199 1.928-1.117 4.161-2.081 6.699-2.893 2.538-.812 5.432-1.219 8.681-1.219 5.786 0 10.557 1.574 14.313 4.721 3.857 3.045 5.785 8.121 5.785 15.227 0 3.248-.508 6.244-1.523 8.985a33.535 33.535 0 0 1-4.111 7.765c-1.726 2.436-3.756 4.822-6.09 7.157-.704.704-1.522 1.484-2.256 2.208h12.547a73.084 73.084 0 0 0 4.175-5.254c2.436-3.248 4.364-6.597 5.786-10.048 1.421-3.553 2.132-7.31 2.132-11.269 0-8.933-2.59-15.887-7.767-20.861-5.177-5.076-12.892-7.614-23.145-7.614zm90.366 0c-4.467 0-8.578.711-12.334 2.132-3.756 1.32-7.003 3.248-9.744 5.786-2.639 2.436-4.721 5.43-6.244 8.983-1.522 3.553-2.283 7.513-2.283 11.878 0 4.873 1.115 9.391 3.349 13.553 2.233 4.162 6.446 7.765 12.638 10.811a43.053 43.053 0 0 0-3.161 1.903h32.492c-.389-.177-.759-.361-1.161-.534 1.929-1.218 3.909-2.69 5.939-4.415a34.005 34.005 0 0 0 5.481-5.937 33.877 33.877 0 0 0 3.96-7.614c1.015-2.842 1.523-5.94 1.523-9.29 0-3.451-.609-6.802-1.827-10.05-1.117-3.249-2.944-6.141-5.481-8.679-2.437-2.537-5.584-4.567-9.442-6.09-3.857-1.624-8.427-2.437-13.705-2.437zm0 8.527c3.654 0 6.752.558 9.29 1.675 2.537 1.015 4.567 2.437 6.09 4.264a15.366 15.366 0 0 1 3.502 5.937 19.916 19.916 0 0 1 1.218 6.853c0 5.787-1.37 10.609-4.111 14.467-2.741 3.857-6.446 7.106-11.115 9.745-5.279-1.421-9.544-2.893-12.792-4.416-3.249-1.624-5.786-3.351-7.614-5.178-1.827-1.929-3.096-4.06-3.806-6.395-.609-2.335-.914-4.922-.914-7.765 0-2.538.406-4.976 1.218-7.311.914-2.334 2.183-4.364 3.807-6.09 1.726-1.827 3.857-3.247 6.395-4.263 2.538-1.015 5.482-1.523 8.832-1.523z" filter="url(#h)"/></svg>

<svg xmlns="http://www.w3.org/2000/svg" style="isolation:isolate" width="256" height="256" viewBox="0 0 256 256">
 <defs>
  <filter id="jW3lAUgzsVpvm4SUSeMbO2wH7TYij9VG" width="270.648" height="254.338" x="-7.32" y="2.95" filterUnits="userSpaceOnUse">
   <feGaussianBlur xmlns="http://www.w3.org/2000/svg" in="SourceGraphic" stdDeviation="4.294"/>
   <feOffset xmlns="http://www.w3.org/2000/svg" dx="0" dy="4" result="pf_100_offsetBlur"/>
   <feFlood xmlns="http://www.w3.org/2000/svg" flood-opacity=".4"/>
   <feComposite xmlns="http://www.w3.org/2000/svg" in2="pf_100_offsetBlur" operator="in" result="pf_100_dropShadow"/>
   <feBlend xmlns="http://www.w3.org/2000/svg" in="SourceGraphic" in2="pf_100_dropShadow" mode="normal"/>
  </filter>
 </defs>
 <g filter="url(#jW3lAUgzsVpvm4SUSeMbO2wH7TYij9VG)">
  <linearGradient id="_lgradient_29" x1=".533" x2=".533" y1="-.071" y2="1.071" gradientTransform="matrix(244.648,0,0,228.338,5.676,11.947)" gradientUnits="userSpaceOnUse">
   <stop offset="0%" style="stop-color:rgb(43,137,143)"/>
   <stop offset="100%" style="stop-color:rgb(91,219,193)"/>
  </linearGradient>
  <path fill="url(#_lgradient_29)" d="M 165.685 11.947 C 239.74 11.947 250.324 22.504 250.324 96.491 L 250.324 155.742 C 250.324 229.728 239.74 240.285 165.685 240.285 L 90.315 240.285 C 16.26 240.285 5.676 229.728 5.676 155.742 L 5.676 96.491 C 5.676 22.504 16.26 11.947 90.315 11.947 L 165.685 11.947 Z"/>
 </g>
 <g opacity=".4">
  <linearGradient id="_lgradient_30" x1=".517" x2=".517" y1="0" y2="1">
   <stop offset="0%" style="stop-color:rgb(255,255,255)"/>
   <stop offset="12.5%" stop-opacity=".098" style="stop-color:rgb(255,255,255)"/>
   <stop offset="92.5%" stop-opacity=".098" style="stop-color:rgb(0,0,0)"/>
   <stop offset="100%" stop-opacity=".498" style="stop-color:rgb(0,0,0)"/>
  </linearGradient>
  <path fill="none" stroke="url(#_lgradient_30)" stroke-linecap="round" stroke-linejoin="round" stroke-width="4.077" d="M 165.685 11.947 C 239.74 11.947 250.324 22.504 250.324 96.491 L 250.324 155.742 C 250.324 229.728 239.74 240.285 165.685 240.285 L 90.315 240.285 C 16.26 240.285 5.676 229.728 5.676 155.742 L 5.676 96.491 C 5.676 22.504 16.26 11.947 90.315 11.947 L 165.685 11.947 Z" vector-effect="non-scaling-stroke"/>
 </g>
 <g opacity=".1">
  <path fill="#FFFFFF" d="M 5.676 126.116 L 5.676 155.742 C 5.676 229.728 16.26 240.285 90.315 240.285 L 165.685 240.285 C 239.74 240.285 250.324 229.728 250.324 155.742 L 250.324 126.116 L 5.676 126.116 Z"/>
 </g>
 <g>
  <defs>
   <filter id="BhanRudTHYx1uOqCpuaVuslbqh2y0ooS" width="270.648" height="74.93" x="-7.32" y="94.53" filterUnits="userSpaceOnUse">
    <feGaussianBlur xmlns="http://www.w3.org/2000/svg" in="SourceGraphic" stdDeviation="4.294"/>
    <feOffset xmlns="http://www.w3.org/2000/svg" dx="0" dy="4" result="pf_100_offsetBlur"/>
    <feFlood xmlns="http://www.w3.org/2000/svg" flood-opacity=".4"/>
    <feComposite xmlns="http://www.w3.org/2000/svg" in2="pf_100_offsetBlur" operator="in" result="pf_100_dropShadow"/>
    <feBlend xmlns="http://www.w3.org/2000/svg" in="SourceGraphic" in2="pf_100_dropShadow" mode="normal"/>
   </filter>
  </defs>
  <g filter="url(#BhanRudTHYx1uOqCpuaVuslbqh2y0ooS)">
   <linearGradient id="_lgradient_31" x1="-.008" x2="-.008" y1=".917" y2=".083" gradientTransform="matrix(244.648,0,0,48.93,5.676,103.535)" gradientUnits="userSpaceOnUse">
    <stop offset="0%" style="stop-color:rgb(217,217,217)"/>
    <stop offset="100%" style="stop-color:rgb(236,236,236)"/>
   </linearGradient>
   <path fill="url(#_lgradient_31)" d="M 5.676 103.535 L 5.676 152.465 L 13.831 152.465 L 13.831 103.535 L 5.676 103.535 Z M 242.169 103.535 L 242.169 152.465 L 250.324 152.465 L 250.324 103.535 L 242.169 103.535 Z"/>
  </g>
  <defs>
   <filter id="wIi1vXswBXZ77iIB5SVig1dlIFQGi9F6" width="270.648" height="27.019" x="-7.32" y="94.53" filterUnits="userSpaceOnUse">
    <feGaussianBlur xmlns="http://www.w3.org/2000/svg" in="SourceGraphic" stdDeviation="4.294"/>
    <feOffset xmlns="http://www.w3.org/2000/svg" dx="0" dy="4" result="pf_100_offsetBlur"/>
    <feFlood xmlns="http://www.w3.org/2000/svg" flood-opacity=".4"/>
    <feComposite xmlns="http://www.w3.org/2000/svg" in2="pf_100_offsetBlur" operator="in" result="pf_100_dropShadow"/>
    <feBlend xmlns="http://www.w3.org/2000/svg" in="SourceGraphic" in2="pf_100_dropShadow" mode="normal"/>
   </filter>
  </defs>
  <g filter="url(#wIi1vXswBXZ77iIB5SVig1dlIFQGi9F6)">
   <path fill="#FFFFFF" d="M 5.676 103.535 L 5.676 104.554 L 13.831 104.554 L 13.831 103.535 L 5.676 103.535 Z M 242.169 103.535 L 242.169 104.554 L 250.324 104.554 L 250.324 103.535 L 242.169 103.535 Z"/>
  </g>
  <defs>
   <filter id="0DbG4XVMOdiAyHvGrHnMALVxi5zOcKED" width="175.598" height="81.046" x="41.04" y="119" filterUnits="userSpaceOnUse">
    <feGaussianBlur xmlns="http://www.w3.org/2000/svg" in="SourceGraphic" stdDeviation="4.294"/>
    <feOffset xmlns="http://www.w3.org/2000/svg" dx="0" dy="4" result="pf_100_offsetBlur"/>
    <feFlood xmlns="http://www.w3.org/2000/svg" flood-opacity=".4"/>
    <feComposite xmlns="http://www.w3.org/2000/svg" in2="pf_100_offsetBlur" operator="in" result="pf_100_dropShadow"/>
    <feBlend xmlns="http://www.w3.org/2000/svg" in="SourceGraphic" in2="pf_100_dropShadow" mode="normal"/>
   </filter>
  </defs>
  <g filter="url(#0DbG4XVMOdiAyHvGrHnMALVxi5zOcKED)">
   <path fill="#F9F9F9" d="M 86.652 128 C 85.057 129.573 83.49 131.128 81.752 132.796 C 78.707 135.74 75.508 138.786 72.158 141.933 C 68.909 145.08 65.915 148.48 63.175 152.134 C 60.535 155.789 58.352 159.697 56.626 163.859 C 54.901 167.92 54.038 172.336 54.038 177.107 L 54.038 179.695 C 54.14 180.203 54.189 180.559 54.189 180.762 L 114.947 180.762 L 114.947 172.082 L 65.154 172.082 L 65.154 171.777 C 65.154 169.341 65.711 166.905 66.828 164.468 C 68.046 161.93 69.62 159.393 71.549 156.855 C 73.579 154.215 75.814 151.628 78.25 149.09 C 80.788 146.451 83.375 143.861 86.015 141.323 C 89.162 138.278 92.257 135.232 95.303 132.187 C 96.677 130.813 97.969 129.416 99.199 128 L 86.652 128 Z M 152.967 128 C 151.655 128.863 150.372 129.796 149.124 130.817 C 146.992 132.543 145.064 134.573 143.338 136.908 C 141.714 139.141 140.393 141.73 139.378 144.674 C 138.363 147.517 137.855 150.714 137.855 154.267 C 137.855 158.429 138.618 162.287 140.141 165.84 C 141.765 169.291 143.998 172.335 146.84 174.974 C 149.784 177.512 153.236 179.492 157.195 180.914 C 161.256 182.335 165.772 183.046 170.746 183.046 C 175.72 183.046 180.238 182.285 184.298 180.762 C 188.359 179.341 191.811 177.361 194.653 174.823 C 197.496 172.184 199.679 169.037 201.201 165.382 C 202.826 161.728 203.636 157.718 203.636 153.353 C 203.636 148.277 202.164 143.455 199.22 138.887 C 196.539 134.577 191.935 130.954 185.459 128 L 152.967 128 Z M 164.655 129.599 C 168.107 130.715 171.507 131.781 174.857 132.796 C 178.309 133.811 181.354 135.182 183.994 136.908 C 186.734 138.633 188.918 140.866 190.542 143.607 C 192.268 146.348 193.13 149.902 193.13 154.267 C 193.13 157.109 192.674 159.748 191.76 162.185 C 190.847 164.621 189.424 166.752 187.496 168.58 C 185.668 170.407 183.334 171.879 180.491 172.996 C 177.751 174.011 174.502 174.519 170.746 174.519 C 166.99 174.519 163.691 174.011 160.849 172.996 C 158.108 171.879 155.773 170.407 153.845 168.58 C 152.017 166.752 150.647 164.621 149.733 162.185 C 148.82 159.748 148.363 157.109 148.363 154.267 C 148.363 148.48 149.784 143.556 152.626 139.496 C 155.468 135.334 159.478 132.035 164.655 129.599 L 164.655 129.599 Z"/>
  </g>
  <defs>
   <filter id="zV795JBQoJIRpiH5c4Bvkvn1fR8gpkn2" width="174.838" height="81.046" x="39.36" y="63.95" filterUnits="userSpaceOnUse">
    <feGaussianBlur xmlns="http://www.w3.org/2000/svg" in="SourceGraphic" stdDeviation="4.294"/>
    <feOffset xmlns="http://www.w3.org/2000/svg" dx="0" dy="4" result="pf_100_offsetBlur"/>
    <feFlood xmlns="http://www.w3.org/2000/svg" flood-opacity=".4"/>
    <feComposite xmlns="http://www.w3.org/2000/svg" in2="pf_100_offsetBlur" operator="in" result="pf_100_dropShadow"/>
    <feBlend xmlns="http://www.w3.org/2000/svg" in="SourceGraphic" in2="pf_100_dropShadow" mode="normal"/>
   </filter>
  </defs>
  <g filter="url(#zV795JBQoJIRpiH5c4Bvkvn1fR8gpkn2)">
   <path fill="#ECECEC" d="M 80.38 72.954 C 76.523 72.954 73.021 73.462 69.874 74.477 C 66.727 75.391 63.937 76.506 61.5 77.826 C 59.165 79.146 57.185 80.516 55.561 81.937 C 54.038 83.257 52.973 84.273 52.364 84.983 L 57.54 91.836 C 58.149 91.227 59.113 90.365 60.433 89.248 C 61.753 88.131 63.326 87.064 65.154 86.049 C 67.082 84.932 69.315 83.968 71.853 83.156 C 74.391 82.344 77.285 81.937 80.534 81.937 C 86.32 81.937 91.091 83.511 94.847 86.658 C 98.704 89.703 100.632 94.779 100.632 101.885 C 100.632 105.133 100.124 108.129 99.109 110.87 C 98.094 113.611 96.724 116.198 94.998 118.635 C 93.272 121.071 91.242 123.457 88.908 125.792 C 88.204 126.496 87.386 127.276 86.652 128 L 99.199 128 C 100.694 126.279 102.093 124.528 103.374 122.746 C 105.81 119.498 107.738 116.149 109.16 112.698 C 110.581 109.145 111.292 105.388 111.292 101.429 C 111.292 92.496 108.702 85.542 103.525 80.568 C 98.348 75.492 90.633 72.954 80.38 72.954 L 80.38 72.954 Z M 170.746 72.954 C 166.279 72.954 162.168 73.665 158.412 75.086 C 154.656 76.406 151.409 78.334 148.668 80.872 C 146.029 83.308 143.947 86.302 142.424 89.855 C 140.902 93.408 140.141 97.368 140.141 101.733 C 140.141 106.606 141.256 111.124 143.49 115.286 C 145.723 119.448 149.936 123.051 156.128 126.097 C 155.053 126.679 154.002 127.319 152.967 128 L 185.459 128 C 185.07 127.823 184.7 127.639 184.298 127.466 C 186.227 126.248 188.207 124.776 190.237 123.051 C 192.267 121.325 194.094 119.347 195.718 117.114 C 197.342 114.779 198.663 112.241 199.678 109.5 C 200.693 106.658 201.201 103.56 201.201 100.21 C 201.201 96.759 200.592 93.408 199.374 90.16 C 198.257 86.911 196.43 84.019 193.893 81.481 C 191.456 78.944 188.309 76.914 184.451 75.391 C 180.594 73.767 176.024 72.954 170.746 72.954 L 170.746 72.954 Z M 170.746 81.481 C 174.4 81.481 177.498 82.039 180.036 83.156 C 182.573 84.171 184.603 85.593 186.126 87.42 C 187.75 89.146 188.917 91.124 189.628 93.357 C 190.44 95.591 190.846 97.875 190.846 100.21 C 190.846 105.997 189.476 110.819 186.735 114.677 C 183.994 118.534 180.289 121.783 175.62 124.422 C 170.341 123.001 166.076 121.529 162.828 120.006 C 159.579 118.382 157.042 116.655 155.214 114.828 C 153.387 112.899 152.118 110.768 151.408 108.433 C 150.799 106.098 150.494 103.511 150.494 100.668 C 150.494 98.13 150.9 95.692 151.712 93.357 C 152.626 91.023 153.895 88.993 155.519 87.267 C 157.245 85.44 159.376 84.02 161.914 83.004 C 164.452 81.989 167.396 81.481 170.746 81.481 L 170.746 81.481 Z"/>
  </g>
 </g>
</svg>
